src/components/SVG/insta.svg

<svg width="18" height="18" viewBox="0 0 18 18" xmlns="http://www.w3.org/2000/svg" class="social-icon">
<path d="M8.99758 5.99861C7.345 5.99861 5.99636 7.34725 5.99636 8.99983C5.99636 10.6524 7.345 12.0011 8.99758 12.0011C10.6502 12.0011 11.9988 10.6524 11.9988 8.99983C11.9988 7.34725 10.6502 5.99861 8.99758 5.99861ZM17.999 8.99983C17.999 7.75702 18.0103 6.52546 17.9405 5.28489C17.8707 3.84394 17.5419 2.5651 16.4883 1.51141C15.4323 0.455468 14.1557 0.129004 12.7148 0.0592081C11.472 -0.0105877 10.2404 0.000669689 8.99983 0.000669689C7.75702 0.000669689 6.52546 -0.0105877 5.28489 0.0592081C3.84395 0.129004 2.5651 0.45772 1.51141 1.51141C0.455469 2.56736 0.129004 3.84394 0.0592081 5.28489C-0.0105877 6.52771 0.000669689 7.75927 0.000669689 8.99983C0.000669689 10.2404 -0.0105877 11.4742 0.0592081 12.7148C0.129004 14.1557 0.45772 15.4346 1.51141 16.4883C2.56736 17.5442 3.84395 17.8707 5.28489 17.9405C6.52771 18.0103 7.75927 17.999 8.99983 17.999C10.2426 17.999 11.4742 18.0103 12.7148 17.9405C14.1557 17.8707 15.4346 17.5419 16.4883 16.4883C17.5442 15.4323 17.8707 14.1557 17.9405 12.7148C18.0125 11.4742 17.999 10.2426 17.999 8.99983V8.99983ZM8.99758 13.6176C6.44215 13.6176 4.3798 11.5553 4.3798 8.99983C4.3798 6.4444 6.44215 4.38205 8.99758 4.38205C11.553 4.38205 13.6154 6.4444 13.6154 8.99983C13.6154 11.5553 11.553 13.6176 8.99758 13.6176ZM13.8045 5.27138C13.2078 5.27138 12.726 4.78957 12.726 4.19292C12.726 3.59628 13.2078 3.11447 13.8045 3.11447C14.4011 3.11447 14.8829 3.59628 14.8829 4.19292C14.8831 4.3346 14.8554 4.47492 14.8012 4.60584C14.7471 4.73677 14.6677 4.85573 14.5675 4.95591C14.4673 5.05609 14.3483 5.13552 14.2174 5.18965C14.0865 5.24379 13.9462 5.27156 13.8045 5.27138V5.27138Z" />
</svg>

<svg width="18" height="18" xmlns="http://www.w3.org/2000/svg" class="social-icon"><path d="M8.998 5.999a3.008 3.008 0 00-3.002 3 3.008 3.008 0 003.002 3.002 3.008 3.008 0 003-3.001 3.008 3.008 0 00-3-3.001zm9.001 3c0-1.242.011-2.474-.058-3.714-.07-1.441-.4-2.72-1.453-3.774C15.432.455 14.156.13 12.715.06 11.472-.01 10.24.001 9 .001 7.757 0 6.525-.011 5.285.059 3.844.13 2.565.458 1.51 1.511.455 2.567.13 3.844.06 5.285-.01 6.528.001 7.759.001 9c0 1.24-.012 2.474.058 3.715.07 1.44.399 2.72 1.452 3.773 1.056 1.056 2.333 1.383 3.774 1.453 1.243.07 2.474.058 3.715.058 1.243 0 2.474.011 3.715-.058 1.44-.07 2.72-.4 3.773-1.453 1.056-1.056 1.383-2.332 1.453-3.773.072-1.24.058-2.472.058-3.715zm-9.001 4.619A4.611 4.611 0 014.38 9a4.611 4.611 0 014.618-4.618A4.611 4.611 0 0113.615 9a4.611 4.611 0 01-4.617 4.618zm4.807-8.347a1.077 1.077 0 01-1.079-1.078c0-.597.482-1.079 1.079-1.079a1.077 1.077 0 01.412 2.076c-.13.054-.27.082-.412.081z"/></svg>
